X: 4871
T: Braes Of Glendochart, The
R: reel
M: 4/4
K: Dmixolydian
~F3A B2AF|G2cG EG~G2|FDAD BDAF|1 Add^c dBAG:|2 Add^c d3e||
fdad fagf|ecgc eg~g2|fdad fage|cAGE EDD2|
fdad fagf|ecgc eg~g2|afge d2ed|cAGE EDD2||

